libs/ui/packages/crypto-icons/src/svg/currency_etherlink.svg

<svg width="24" height="24" viewBox="0 0 24 24" fill="none">
<path d="M 12 2.566406 C 6.789062 2.566406 2.566406 6.789062 2.566406 12 C 2.566406 17.210938 6.789062 21.433594 12 21.433594 C 17.210938 21.433594 21.433594 17.210938 21.433594 12 C 21.433594 6.789062 17.210938 2.566406 12 2.566406 Z M 12 19.761719 C 7.710938 19.761719 4.238281 16.289062 4.238281 12 C 4.238281 7.710938 7.710938 4.238281 12 4.238281 C 16.289062 4.238281 19.761719 7.710938 19.761719 12 C 19.761719 16.289062 16.289062 19.761719 12 19.761719 Z M 12 19.761719 " fill="#38ff9c"/>
<path d="M 11.949219 6.8125 C 9.09375 6.839844 6.78125 9.207031 6.8125 12.058594 C 6.820312 12.789062 6.980469 13.484375 7.261719 14.109375 C 7.300781 14.203125 7.425781 14.226562 7.5 14.152344 L 8.640625 12.972656 C 8.714844 12.894531 8.746094 12.785156 8.726562 12.679688 C 8.679688 12.460938 8.65625 12.234375 8.65625 12 C 8.65625 10.152344 10.152344 8.65625 12 8.65625 C 12.1875 8.65625 12.375 8.671875 12.554688 8.703125 C 12.675781 8.722656 12.796875 8.683594 12.882812 8.59375 L 14.019531 7.421875 C 14.085938 7.355469 14.0625 7.238281 13.976562 7.203125 C 13.351562 6.945312 12.667969 6.804688 11.949219 6.8125 Z M 11.949219 6.8125 " fill="#38ff9c"/>
<path d="M 12.050781 17.191406 C 14.90625 17.164062 17.21875 14.800781 17.1875 11.945312 C 17.179688 11.21875 17.019531 10.523438 16.738281 9.894531 C 16.695312 9.800781 16.574219 9.78125 16.5 9.855469 L 15.359375 11.035156 C 15.28125 11.113281 15.253906 11.21875 15.273438 11.324219 C 15.320312 11.546875 15.34375 11.773438 15.34375 12.007812 C 15.34375 13.855469 13.847656 15.351562 12 15.351562 C 11.8125 15.351562 11.625 15.335938 11.445312 15.304688 C 11.324219 15.285156 11.203125 15.324219 11.117188 15.410156 L 9.980469 16.585938 C 9.910156 16.652344 9.933594 16.769531 10.023438 16.804688 C 10.648438 17.0625 11.332031 17.199219 12.050781 17.195312 Z M 12.050781 17.191406 " fill="#38ff9c"/>
<path d="M 7.148438 15.203125 L 9.328125 13.027344 C 9.769531 12.582031 10.488281 12.582031 10.929688 13.027344 C 11.371094 13.46875 11.371094 14.183594 10.929688 14.625 L 8.75 16.804688 C 8.308594 17.246094 7.589844 17.246094 7.148438 16.804688 C 6.707031 16.363281 6.707031 15.644531 7.148438 15.203125 Z M 7.148438 15.203125 " fill="#38ff9c"/>
<path d="M 13.023438 9.34375 L 15.203125 7.164062 C 15.644531 6.722656 16.359375 6.722656 16.800781 7.164062 C 17.246094 7.605469 17.246094 8.324219 16.800781 8.765625 L 14.625 10.945312 C 14.183594 11.386719 13.464844 11.386719 13.023438 10.945312 C 12.582031 10.5 12.582031 9.785156 13.023438 9.34375 Z M 13.023438 9.34375 " fill="#38ff9c"/>
</svg>

<svg width="24" height="24" viewBox="0 0 24 24" fill="none"><path fill="#38ff9c" d="M12 2.566A9.43 9.43 0 0 0 2.566 12 9.43 9.43 0 0 0 12 21.434 9.43 9.43 0 0 0 21.434 12 9.43 9.43 0 0 0 12 2.566m0 17.196A7.76 7.76 0 0 1 4.238 12 7.76 7.76 0 0 1 12 4.238 7.76 7.76 0 0 1 19.762 12 7.76 7.76 0 0 1 12 19.762m0 0"/><path fill="#38ff9c" d="M11.95 6.813c-2.856.027-5.169 2.394-5.137 5.246.007.73.167 1.425.449 2.05a.145.145 0 0 0 .238.043l1.14-1.18a.34.34 0 0 0 .087-.292 3.343 3.343 0 0 1 3.828-3.977c.12.02.242-.02.328-.11l1.137-1.171a.136.136 0 0 0-.043-.219 5.2 5.2 0 0 0-2.028-.39m.101 10.378c2.856-.027 5.169-2.39 5.137-5.246a5.2 5.2 0 0 0-.449-2.05.146.146 0 0 0-.238-.04l-1.14 1.18a.32.32 0 0 0-.087.29q.07.332.07.683a3.343 3.343 0 0 1-3.898 3.297.38.38 0 0 0-.328.105L9.98 16.586a.132.132 0 0 0 .043.219 5.2 5.2 0 0 0 2.028.39Zm-4.902-1.988 2.18-2.176a1.127 1.127 0 0 1 1.602 0 1.13 1.13 0 0 1 0 1.598l-2.18 2.18a1.134 1.134 0 0 1-1.602 0 1.134 1.134 0 0 1 0-1.602m5.875-5.859 2.18-2.18a1.13 1.13 0 0 1 1.598 0c.445.441.445 1.16 0 1.602l-2.176 2.18a1.134 1.134 0 0 1-1.602 0 1.134 1.134 0 0 1 0-1.602m0 0"/></svg>
